icons-dark/apps/48/author.svg

<?xml version="1.0" encoding="UTF-8" standalone="no"?>

<!-- Created with Inkscape (http://www.inkscape.org/) -->
<svg width="48" version="1.1" xmlns="http://www.w3.org/2000/svg" height="48" xmlns:xlink="http://www.w3.org/1999/xlink" xmlns:inkscape="http://www.inkscape.org/namespaces/inkscape">
 <defs id="defs2987">
  <linearGradient inkscape:collect="always" id="linearGradient4279">
   <stop id="stop4281"/>
   <stop offset="1" style="stop-opacity:0" id="stop4283"/>
  </linearGradient>
  <linearGradient inkscape:collect="always" xlink:href="#linearGradient4300-7" id="linearGradient4280" y1="30" x1="34" y2="28" x2="24" gradientUnits="userSpaceOnUse"/>
  <linearGradient inkscape:collect="always" id="linearGradient4300-7">
   <stop style="stop-color:#f39c12" id="stop4302-4"/>
   <stop offset="1" style="stop-color:#ffc35a" id="stop4304-1"/>
  </linearGradient>
  <linearGradient inkscape:collect="always" xlink:href="#linearGradient4279" id="linearGradient4427" y1="30" x1="24" y2="44" x2="38" gradientUnits="userSpaceOnUse"/>
  <linearGradient inkscape:collect="always" id="linearGradient4256">
   <stop style="stop-color:#60c0f4" id="stop4258"/>
   <stop offset="1" style="stop-color:#b9e9ff" id="stop4260"/>
  </linearGradient>
  <linearGradient inkscape:collect="always" xlink:href="#linearGradient4816" id="linearGradient4503" y1="37" y2="4" x2="0" gradientUnits="userSpaceOnUse"/>
  <linearGradient inkscape:collect="always" xlink:href="#linearGradient4279" id="linearGradient4503-6" y1="22.3125" x1="20.4375" y2="25.40625" x2="23.53125" gradientUnits="userSpaceOnUse"/>
  <linearGradient inkscape:collect="always" xlink:href="#linearGradient4256" id="linearGradient4640" y1="45" y2="24" x2="0" gradientUnits="userSpaceOnUse"/>
  <linearGradient inkscape:collect="always" id="linearGradient4816">
   <stop style="stop-color:#da4453" id="stop4818"/>
   <stop offset="1" style="stop-color:#ff7336" id="stop4820"/>
  </linearGradient>
  <linearGradient inkscape:collect="always" id="linearGradient4168">
   <stop style="stop-color:#cea476" id="stop4170"/>
   <stop offset="1" style="stop-color:#dab58b" id="stop4172"/>
  </linearGradient>
  <linearGradient inkscape:collect="always" xlink:href="#linearGradient4168" id="linearGradient4877" y1="23" x1="32" y2="22" x2="25" gradientUnits="userSpaceOnUse" gradientTransform="matrix(1 0 0 1 -1 0)"/>
  <linearGradient inkscape:collect="always" xlink:href="#linearGradient4279" id="linearGradient4887" y1="24" x1="25" y2="38" x2="39" gradientUnits="userSpaceOnUse"/>
 </defs>
 <metadata id="metadata2990"/>
 <g inkscape:label="Layer 1" inkscape:groupmode="layer" id="layer1">
  <g id="g4914" transform="matrix(1 0 0 1 1 0)">
   <path inkscape:connector-curvature="0" style="fill:url(#linearGradient4640);fill-rule:evenodd" id="path4186" d="m 24,24 c 0,0 -1,0.466666 -1,2 0,1.533333 1,2 1,2 l 0,2 c 0,0 -6,1.866667 -6,8 0,6 2.933334,6 6,6 l 10,0 c 3.066667,0 6,0 6,-6 0,-6.133333 -6,-8 -6,-8 l 0,-2 c 0,0 1,-0.466667 1,-2 0,-1.533334 -1,-2 -1,-2 z"/>
   <path inkscape:connector-curvature="0" style="fill:#65c2f5;fill-rule:evenodd" id="path4186-9" d="m 26,24 0,7.472656 -1.40625,0.4375 c 0,0 -1.138287,0.358885 -2.324219,1.333985 C 21.083599,34.21924 20,35.585507 20,38 c 0,2.674074 0.536349,3.302049 0.964844,3.589844 C 21.393339,41.877639 22.466667,42 24,42 l 10,0 c 1.533334,0 2.606662,-0.122361 3.035156,-0.410156 C 37.463651,41.302049 38,40.674074 38,38 38,35.585507 36.916401,34.21924 35.730469,33.244141 34.544537,32.269041 33.40625,31.910156 33.40625,31.910156 L 32,31.472656 32,24 Z"/>
   <path inkscape:connector-curvature="0" style="fill:url(#linearGradient4427);opacity:0.2;fill-rule:evenodd" id="path4400" d="M 24,30 37.558594,43.558594 C 38.998866,42.950843 40,41.499644 40,38 40,31.866667 34,30 34,30 l -10,0 z"/>
   <rect width="10" x="24" y="28" height="2" style="fill:url(#linearGradient4280);stroke-linecap:round;stroke-linejoin:bevel;stroke-width:2" id="rect4204"/>
   <path inkscape:connector-curvature="0" style="fill:#34495e;stroke-linecap:round;stroke-linejoin:bevel;stroke-width:2" id="rect4612" d="M 20.742188,35 C 20.295538,35.780312 20,36.746762 20,38 c 0,2.674074 0.536349,3.302049 0.964844,3.589844 C 21.393339,41.877639 22.466667,42 24,42 l 10,0 c 1.533334,0 2.606662,-0.122361 3.035156,-0.410156 C 37.463651,41.302049 38,40.674074 38,38 38,36.746762 37.704462,35.780312 37.257812,35 l -16.515624,0 z"/>
   <rect width="10" x="24" y="22" rx="0.988951" height="2" style="fill:url(#linearGradient4877);stroke-linecap:round;stroke-linejoin:bevel;stroke-width:4" id="rect4795"/>
   <rect width="6" x="26" y="24" height="3" style="fill:#cea476;stroke-linecap:round;stroke-linejoin:bevel;stroke-width:4" id="rect4797"/>
   <path inkscape:connector-curvature="0" style="fill:url(#linearGradient4887);opacity:0.2;fill-rule:evenodd" id="path4879" d="M 25,24 39.96875,38.96875 C 39.987487,38.663208 40,38.343817 40,38 40,31.866667 34,30 34,30 l 0,-2 c 0,0 1,-0.466667 1,-2 0,-1.533334 -1,-2 -1,-2 l -9,0 z"/>
  </g>
  <g id="g4924" transform="matrix(1 0 0 1 -1 0)">
   <path inkscape:connector-curvature="0" style="fill:url(#linearGradient4503);fill-rule:evenodd" id="path4185" d="m 33.998141,4.0000036 -2.32998,1.1433323 C 29.336498,6.28749 26.873667,8.8935726 26.873667,8.8935726 l 0.366385,2.9440044 c -0.138214,0.200594 -0.283271,0.414892 -0.429358,0.629254 l -1.036182,-1.856859 -1.685944,2.098446 1.190751,2.042263 c -0.007,0.01055 -0.016,0.02316 -0.02289,0.03371 l -1.491303,-1.693928 c 0,0 -0.970744,1.143227 -3.95009,5.402027 -2.979343,4.258798 -5.441392,9.216873 -5.441392,9.216873 l 0.114513,3.368191 c -0.160296,0.237251 -0.329898,0.494296 -0.486607,0.724761 l -0.469433,-2.758602 -1.036183,1.716401 -0.260474,1.654599 -0.581066,0.699482 c 0,0 -0.962143,3.59886 -0.777767,4.249373 0.184376,0.650512 2.624004,-0.628356 2.624004,-0.628356 l 0.128818,-0.856798 1.975044,-0.634871 -2.198311,-0.438229 c 0.05297,-0.08873 0.117951,-0.196685 0.171733,-0.286536 0.263028,0.08114 0.572702,0.172055 1.153543,0.278107 1.392519,0.254258 2.329979,-0.252823 2.329979,-0.252823 l 1.004697,-1.272554 c 0,0 -0.777223,0.540572 -1.651596,0.699483 -0.861376,0.156545 -2.32595,-0.205336 -2.370053,-0.216305 0.07688,-0.127419 0.15934,-0.264068 0.237578,-0.393284 0.369821,-0.09422 3.70254,-0.963621 5.661795,-2.345653 2.072589,-1.461976 6.185613,-5.975096 6.185613,-5.975096 2e-6,0 -0.992112,-0.0089 -3.129469,-0.04066 -2.01397,-0.02995 -3.794105,-0.01618 -4,0 0.09296,-0.1486 0,-1.000001 0,-1.000001 l 8.586422,-1.344329 c 0,0 0.551994,-1.048869 1.393983,-2.733319 C 29.822393,18.237898 32,14 32,14 c 0,0 -1.462458,-0.04151 -2.767704,-0.221298 -1.245817,-0.1716 -2.425205,-0.471709 -2.536074,-0.500031 0.01508,-0.02315 0.03087,-0.04715 0.0458,-0.07024 0.181331,-0.08387 1.345798,-0.619878 2.215486,-0.890506 0.938861,-0.292152 3.801246,-0.696672 3.801246,-0.696672 0,0 0.02289,-0.404522 0.228991,-1.236034 0.206093,-0.8315125 0.618277,-2.7417463 0.618277,-2.7417463 l -4.98055,2.8063573 c 0.20965,-0.288471 0.407755,-0.5450382 0.612549,-0.8174671 L 33.789214,6.969277 c 0,0 0.0458,-0.584307 0.137386,-1.3483995 C 34.018178,4.856796 33.998143,4 33.998141,4.0000036 Z"/>
   <path inkscape:connector-curvature="0" style="fill:#31363b;fill-rule:evenodd" id="path4179" d="m 34,4 c 0,0 -4.620614,4.9406035 -9.222089,11.274539 -4.601474,6.333936 -9.267705,13.499315 -13.933784,21.679993 -4.0519049,7.103892 -2.5856438,7.045452 -2.5856438,7.045452 0,0 0.4595098,-1.18371 3.6773598,-6.761361 C 15.011638,31.907204 18.902715,25.022719 25.409918,15.534086 28.511393,11.011597 34,4 34,4 Z"/>
   <path inkscape:connector-curvature="0" style="fill:url(#linearGradient4503-6);opacity:0.2;fill-rule:evenodd" id="path4185-0" d="m 33.998047,4 -0.707031,0.8828125 -2.57667,3.297716 -3.972158,5.0284555 c 0.181331,-0.08387 1.345155,-0.619997 2.214843,-0.890625 0.938861,-0.292152 3.800782,-0.697265 3.800781,-0.697265 0,0 0.02437,-0.404816 0.230469,-1.236328 0.206093,-0.8315125 0.617188,-2.7421879 0.617188,-2.7421879 L 29.30516,10.051392 C 29.51481,9.7629215 29.713647,9.5074149 29.918441,9.234986 L 33.789062,6.96875 c 0,0 0.04513,-0.5835637 0.136719,-1.3476562 C 34.017361,4.8570123 33.998047,3.9999964 33.998047,4 Z M 26.742188,13.208984 19,24 27.585938,22.65625 c 0,0 0.552542,-1.049925 1.394531,-2.734375 C 29.822455,18.237429 32,14 32,14 c 0,0 -1.462332,-0.04092 -2.767578,-0.220703 -1.245817,-0.1716 -2.42624,-0.471678 -2.53711,-0.5 0.01508,-0.02315 0.03195,-0.04722 0.04688,-0.07031 z M 19,24 11.035156,37.519531 C 11.615562,37.723447 13.5,36.734375 13.5,36.734375 l 0.128906,-0.855469 1.976563,-0.634765 -2.199219,-0.439453 c 0.05297,-0.08873 0.118093,-0.195306 0.171875,-0.285157 0.263028,0.08114 0.573456,0.171292 1.154297,0.277344 1.392519,0.254258 2.328125,-0.251953 2.328125,-0.251953 l 1.005859,-1.273438 c 0,0 -0.77797,0.540308 -1.652344,0.699219 -0.861375,0.156545 -2.325037,-0.205828 -2.36914,-0.216797 0.07688,-0.127419 0.15809,-0.263362 0.236328,-0.392578 0.369821,-0.09422 3.702854,-0.963671 5.662109,-2.345703 2.072589,-1.461976 6.185547,-5.974609 6.185547,-5.974609 2e-6,0 -0.991549,-0.0093 -3.128906,-0.04102 -2.01397,-0.02995 -3.794105,-0.01618 -4,0 0.09296,-0.1486 0,-1 0,-1 z"/>
  </g>
 </g>
</svg>

<svg width="48" xmlns="http://www.w3.org/2000/svg" height="48" xmlns:xlink="http://www.w3.org/1999/xlink">
 <defs>
  <linearGradient id="a" y1="30" x1="34" y2="28" x2="24" gradientUnits="userSpaceOnUse">
   <stop stop-color="#f39c12"/>
   <stop offset="1" stop-color="#ffc35a"/>
  </linearGradient>
  <linearGradient id="b" y1="30" x1="24" y2="44" x2="38" gradientUnits="userSpaceOnUse">
   <stop/>
   <stop offset="1" stop-opacity="0"/>
  </linearGradient>
  <linearGradient id="c" y1="37" y2="4" x2="0" gradientUnits="userSpaceOnUse">
   <stop stop-color="#da4453"/>
   <stop offset="1" stop-color="#ff7336"/>
  </linearGradient>
  <linearGradient xlink:href="#b" id="d" y1="22.313" x1="20.438" y2="25.406" x2="23.531" gradientUnits="userSpaceOnUse"/>
  <linearGradient id="e" y1="45" y2="24" x2="0" gradientUnits="userSpaceOnUse">
   <stop stop-color="#60c0f4"/>
   <stop offset="1" stop-color="#b9e9ff"/>
  </linearGradient>
  <linearGradient id="f" y1="23" x1="32" y2="22" x2="25" gradientUnits="userSpaceOnUse" gradientTransform="translate(-1)">
   <stop stop-color="#cea476"/>
   <stop offset="1" stop-color="#dab58b"/>
  </linearGradient>
  <linearGradient xlink:href="#b" id="g" y1="24" x1="25" y2="38" x2="39" gradientUnits="userSpaceOnUse"/>
 </defs>
 <g transform="translate(1)">
  <g fill-rule="evenodd">
   <path fill="url(#e)" d="m24 24c0 0-1 .467-1 2 0 1.533 1 2 1 2v2c0 0-6 1.867-6 8 0 6 2.933 6 6 6h10c3.067 0 6 0 6-6 0-6.133-6-8-6-8v-2c0 0 1-.467 1-2 0-1.533-1-2-1-2z"/>
   <path fill="#65c2f5" d="m26 24v7.473l-1.406.438c0 0-1.138.359-2.324 1.334-1.186.975-2.27 2.341-2.27 4.756 0 2.674.536 3.302.965 3.59.428.288 1.502.41 3.035.41h10c1.533 0 2.607-.122 3.035-.41.428-.288.965-.916.965-3.59 0-2.414-1.084-3.781-2.27-4.756-1.186-.975-2.324-1.334-2.324-1.334l-1.406-.438v-7.473z"/>
   <path opacity=".2" fill="url(#b)" d="m24 30l13.559 13.559c1.44-.608 2.441-2.059 2.441-5.559 0-6.133-6-8-6-8z"/>
  </g>
  <g stroke-linejoin="bevel">
   <g stroke-width="2">
    <rect width="10" x="24" y="28" fill="url(#a)" height="2" stroke-linecap="round"/>
    <path fill="#34495e" d="m20.742 35c-.447.78-.742 1.747-.742 3 0 2.674.536 3.302.965 3.59.428.288 1.502.41 3.035.41h10c1.533 0 2.607-.122 3.035-.41.428-.288.965-.916.965-3.59 0-1.253-.296-2.22-.742-3z"/>
   </g>
   <g stroke-linecap="round" stroke-width="4">
    <rect width="10" x="24" y="22" fill="url(#f)" rx=".989" height="2"/>
    <rect width="6" x="26" y="24" fill="#cea476" height="3"/>
   </g>
  </g>
  <path opacity=".2" fill="url(#g)" fill-rule="evenodd" d="m25 24l14.969 14.969c.019-.306.031-.625.031-.969 0-6.133-6-8-6-8v-2c0 0 1-.467 1-2 0-1.533-1-2-1-2z"/>
 </g>
 <g fill-rule="evenodd" transform="translate(-1)">
  <path fill="url(#c)" d="m33.998 4l-2.33 1.143c-2.332 1.144-4.794 3.75-4.794 3.75l.366 2.944c-.138.201-.283.415-.429.629l-1.036-1.857-1.686 2.098 1.191 2.042c-.007.011-.016.023-.023.034l-1.491-1.694c0 0-.971 1.143-3.95 5.402-2.979 4.259-5.441 9.217-5.441 9.217l.115 3.368c-.16.237-.33.494-.487.725l-.469-2.759-1.036 1.716-.26 1.655-.581.699c0 0-.962 3.599-.778 4.249.184.651 2.624-.628 2.624-.628l.129-.857 1.975-.635-2.198-.438c.053-.089.118-.197.172-.287.263.081.573.172 1.154.278 1.393.254 2.33-.253 2.33-.253l1-1.273c0 0-.777.541-1.652.699-.861.157-2.326-.205-2.37-.216.077-.127.159-.264.238-.393.37-.094 3.703-.964 5.662-2.346 2.073-1.462 6.186-5.975 6.186-5.975 0 0-.992-.009-3.129-.041-2.01-.03-3.794-.016-4 0 .093-.149 0-1 0-1l8.586-1.344c0 0 .552-1.049 1.394-2.733.842-1.684 3.02-5.922 3.02-5.922 0 0-1.462-.042-2.768-.221-1.246-.172-2.425-.472-2.536-.5.015-.023.031-.047.046-.07.181-.084 1.346-.62 2.215-.891.939-.292 3.801-.697 3.801-.697 0 0 .023-.405.229-1.236.206-.832.618-2.742.618-2.742l-4.981 2.806c.21-.288.408-.545.613-.817l4.551-2.663c0 0 .046-.584.137-1.348.092-.764.072-1.621.072-1.621"/>
  <path fill="#31363b" d="m34 4c0 0-4.621 4.941-9.222 11.275-4.601 6.334-9.268 13.499-13.934 21.68-4.052 7.104-2.586 7.05-2.586 7.05 0 0 .46-1.184 3.677-6.761 3.076-5.331 6.967-12.216 13.474-21.705 3.101-4.522 8.59-11.534 8.59-11.534"/>
  <path opacity=".2" fill="url(#d)" d="m33.998 4l-.707.883-2.577 3.298-3.972 5.03c.181-.084 1.345-.62 2.215-.891.939-.292 3.801-.697 3.801-.697 0 0 .024-.405.23-1.236.206-.832.617-2.742.617-2.742l-4.3 2.409c.21-.288.408-.544.613-.816l3.871-2.266c0 0 .045-.584.137-1.348.092-.764.072-1.621.072-1.621m-7.256 9.209l-7.742 10.791 8.586-1.344c0 0 .553-1.05 1.395-2.734.842-1.684 3.02-5.922 3.02-5.922 0 0-1.462-.041-2.768-.221-1.246-.172-2.426-.472-2.537-.5.015-.023.032-.047.047-.07m-7.742 10.791l-7.965 13.52c.58.204 2.465-.785 2.465-.785l.129-.855 1.977-.635-2.199-.439c.053-.089.118-.195.172-.285.263.081.573.171 1.154.277 1.393.254 2.328-.252 2.328-.252l1.01-1.273c0 0-.778.54-1.652.699-.861.157-2.325-.206-2.369-.217.077-.127.158-.263.236-.393.37-.094 3.703-.964 5.662-2.346 2.073-1.462 6.186-5.975 6.186-5.975 0 0-.992-.009-3.129-.041-2.01-.03-3.794-.016-4 0 .093-.149 0-1 0-1"/>
 </g>
</svg>
